X:1
T:Famous Flower of Serving Men
M:3/4
L:1/4
K:C
 G- G3/2 G/2| G G G| F G z| F D E| F G/2G/2 F| E/2E/2 E D| C D2| G- G A3/2|\
 G/2 B z d| d d d| G G F| G2|
